!!!ONB: MCCC : IJH0459_01 : Extracted Monophonic Melody
!!!COM: Haydn, Joseph
!!!OPR: String Quartet in G major
!!!OMV: 1
!!!SCT: Hob.III:4 ; Op.1 No.4
!!!ODT: 1757///
**kern
*thru
*k[f#]
*G:
*clefF
*M3/8
8g
4r
=1
8f#
4r
=2
8cc
4r
=3
8b
4r
=4
8gg
8dd
8dd
=5
4dd
16cc
16a
=6
8gg
8dd
8dd
=7
4dd
16cc
16a
=8
8g
16cc
16b
16ee
16dd
=9
16gg
16ff#
16aa
16gg
16bb
16gg
=10
4dd
8cc
=11
8b
4r
=12
8g
4r
=13
8f#
4r
=14
8cc
4r
=15
8b
4r
=16
4bb
16b
16cc#
=17
16dd
16a
16g
16f#
16e
16d
=18
16c#
16e
16g
16e
16f#
16d
=19
8A
4r
=20
16c#
16e
16g
16e
16f#
16d
=21
8A
4r
=22
16cc#
16ee
16gg
16ee
16ff#
16dd
=23
16cc#
16dd
16ee
16cc#
16a
16g
=24
4f#
8r
=25
4r
8aa
=26
8a
4r
=27
4r
8aa
=28
8a
4r
=29
4r
8aa
=30
8a
4r
=31
4.r
=32
4.ccc#
=33
4.eee
=34
4.ggg
=35
4.gg
=36
16gg
16ff#
16bb
16aa
8ddd
=37
4.a
=38
4.ee
=39
8dd
8r
8aa
=40
8ff#
4r
=41
4r
8aa
=42
8ff#
4r
=43
4r
8dd
=44
8cc#
8r
8dd
=45
8cc#
8r
8dd
=46
8cc#
8r
8dd
=47
4cc#
8r
=48
8d
8f#
8a
=49
8dd
8ff#
8aa
=50
8.ee
32ff#
32gg
8ff#
=51
8.ee
32ff#
32gg
8ff#
=52
8d
8f#
8a
=53
8dd
8ff#
8aa
=54
8.bb
32ccc#
32ddd
8aa
=55
8.bb
32ccc#
32ddd
8aa
=56
8gg
8ff#
8ee
=57
4dd
8r
=58
8dd
4r
=59
8cc#
4r
=60
8gg
4r
=61
8ff#
4r
=62
8d
8aa
8ff#
=63
8dd
8d
8d#
=64
8e
8bb
8gg#
=65
8ee
8e
8d
=66
8c
8cc
8b
=67
8a
8A
8A#
=68
4B
16dd#
16b
=69
16ee
16gg
16ff#
16aa
16gg
16bb
=70
4b
16dd#
16b
=71
16ee
16gg
16ff#
16aa
16gg
16bb
=72
8ccc
8r
8cc
=73
16ff#
16aa
16gg
16bb
16aa
16ccc
=74
8bb
8r
8b
=75
16ee
16gg
16ff#
16aa
16gg
16bb
=76
8aa
8r
8a
=77
16dd#
16ff#
16ee
16gg
16ff#
16aa
=78
8.gg
32aa
32bb
8ff#
=79
8.gg
32aa
32bb
8dd#
=80
4.ee
=81
4.eee
=82
4.ccc[
=83
8ccc]
16bb
16aa
16gg
16ff#
=84
8gg
8ee
8dd#
=85
8ee
8r
16bb
16gg
=86
8ee
8b
8g
=87
4e
8r
=88
8bb
8gg#
8ff
=89
8dd
8b
8g#
=90
4f
16e
16d
=91
8c
8g#
8a
=92
8f
16e
16d
16c
16B
=93
4A
8r
=94
8aa
8cc
8cc
=95
16cc
16b
16ee
16dd
8dd
=96
8aa
8cc
8cc
=97
16cc
16b
16ee
16dd
8dd
=98
8dd
16cc
16b
16a
16g
=99
8d
4r
=100
8g
4r
=101
8f#
4r
=102
8cc
4r
=103
8b
4r
=104
8gg
8dd
8dd
=105
4dd
16cc
16a
=106
8gg
8dd
8dd
=107
4dd
16cc
16a
=108
8g
16cc
16b
16ee
16dd
=109
16gg
16ff#
16aa
16gg
16bb
16gg
=110
4dd
8cc
=111
8b
4r
=112
8g
4r
=113
8f#
4r
=114
8cc
4r
=115
8b
4r
=116
4ee
16ee
16ff#
=117
16gg
16dd
16cc
16b
16a
16g
=118
16f#
16a
16cc
16a
16b
16g
=119
8d
4r
=120
16f#
16a
16cc
16a
16b
16g
=121
8d
4r
=122
16f#
16a
16cc
16a
16b
16g
=123
16f#
16g
16a
16f#
16d
16c
=124
4B
8r
=125
4r
8dd
=126
8d
4r
=127
4r
8dd
=128
8d
4r
=129
4r
8dd
=130
8d
4r
=131
4.r
=132
4.ff#
=133
4.aa
=134
4.ccc
=135
4eee
16eee
32ddd
32ccc
=136
8bb
8ddd
8ggg
=137
4.d
=138
4.a
=139
8g
8r
8ddd
=140
8bb
4r
=141
4r
8ddd
=142
8bb
4r
=143
4r
8gg
=144
8ff#
8r
8gg
=145
8ff#
8r
8gg
=146
8ff#
8r
8gg
=147
4ff#
8r
=148
8g
8b
8dd
=149
8gg
8bb
8ddd
=150
8.aa
32bb
32ccc
8bb
=151
8.aa
32bb
32ccc
8bb
=152
8g
8b
8dd
=153
8gg
8bb
8ddd
=154
8.ee
32ff#
32gg
8dd
=155
8.ee
32ff#
32gg
8dd
=156
8cc
8b
8a
=157
4g
8r
==
*-
